; G-Code generated by Simplify3D(R) Version 3.1.1
; Feb 20, 2017 at 9:07:58 PM
; Settings Summary
;   processName,Process1
;   applyToModels,Shelf
;   profileName,LulzBot TAZ 5 (5mm) (modified)
;   profileVersion,2017-02-10 17:29:49
;   baseProfile,LulzBot TAZ 5
;   printMaterial,PLA
;   printQuality,Medium
;   printExtruders,
;   extruderName,Primary Extruder
;   extruderToolheadNumber,0
;   extruderDiameter,0.5
;   extruderAutoWidth,1
;   extruderWidth,0.6
;   extrusionMultiplier,1
;   extruderUseRetract,1
;   extruderRetractionDistance,3
;   extruderExtraRestartDistance,0
;   extruderRetractionZLift,0
;   extruderRetractionSpeed,500
;   extruderUseCoasting,0
;   extruderCoastingDistance,0.2
;   extruderUseWipe,0
;   extruderWipeDistance,5
;   primaryExtruder,0
;   layerHeight,0.25
;   topSolidLayers,0
;   bottomSolidLayers,0
;   perimeterOutlines,3
;   printPerimetersInsideOut,1
;   startPointOption,2
;   startPointOriginX,0
;   startPointOriginY,0
;   startPointOriginZ,300
;   sequentialIslands,0
;   spiralVaseMode,0
;   firstLayerHeightPercentage,105
;   firstLayerWidthPercentage,105
;   firstLayerUnderspeed,0.65
;   useRaft,0
;   raftExtruder,0
;   raftLayers,3
;   raftOffset,3
;   raftSeparationDistance,0.14
;   raftInfill,85
;   disableRaftBaseLayers,0
;   useSkirt,1
;   skirtExtruder,0
;   skirtLayers,1
;   skirtOutlines,1
;   skirtOffset,5
;   usePrimePillar,0
;   primePillarExtruder,999
;   primePillarWidth,12
;   primePillarLocation,7
;   primePillarSpeedMultiplier,1
;   useOozeShield,0
;   oozeShieldExtruder,999
;   oozeShieldOffset,2
;   oozeShieldOutlines,1
;   oozeShieldSidewallShape,1
;   oozeShieldSidewallAngle,30
;   oozeShieldSpeedMultiplier,1
;   infillExtruder,0
;   internalInfillPattern,Fast Honeycomb
;   externalInfillPattern,Rectilinear
;   infillPercentage,15
;   outlineOverlapPercentage,40
;   infillExtrusionWidthPercentage,220
;   minInfillLength,5
;   infillLayerInterval,1
;   infillAngles,0
;   overlapInfillAngles,0
;   generateSupport,0
;   supportExtruder,0
;   supportInfillPercentage,15
;   supportExtraInflation,0
;   denseSupportLayers,0
;   denseSupportInfillPercentage,70
;   supportLayerInterval,1
;   supportHorizontalPartOffset,0.3
;   supportUpperSeparationLayers,1
;   supportLowerSeparationLayers,1
;   supportType,1
;   supportGridSpacing,4
;   maxOverhangAngle,15
;   supportAngles,0,45
;   temperatureName,Primary Extruder,Heated Bed
;   temperatureNumber,0,1
;   temperatureSetpointCount,1,1
;   temperatureSetpointLayers,1,1
;   temperatureSetpointTemperatures,215,65
;   temperatureStabilizeAtStartup,1,1
;   temperatureHeatedBed,0,1
;   temperatureRelayBetweenLayers,0,0
;   temperatureRelayBetweenLoops,0,0
;   fanLayers,1,2
;   fanSpeeds,0,100
;   blipFanToFullPower,0
;   adjustSpeedForCooling,1
;   minSpeedLayerTime,15
;   minCoolingSpeedSlowdown,20
;   increaseFanForCooling,0
;   minFanLayerTime,45
;   maxCoolingFanSpeed,100
;   increaseFanForBridging,0
;   bridgingFanSpeed,100
;   use5D,1
;   relativeEdistances,0
;   allowEaxisZeroing,1
;   independentExtruderAxes,0
;   includeM10123,0
;   stickySupport,1
;   applyToolheadOffsets,0
;   gcodeXoffset,0
;   gcodeYoffset,0
;   gcodeZoffset,0
;   overrideMachineDefinition,1
;   machineTypeOverride,0
;   strokeXoverride,298
;   strokeYoverride,275
;   strokeZoverride,250
;   originOffsetXoverride,0
;   originOffsetYoverride,0
;   originOffsetZoverride,0
;   homeXdirOverride,-1
;   homeYdirOverride,-1
;   homeZdirOverride,-1
;   flipXoverride,1
;   flipYoverride,-1
;   flipZoverride,1
;   toolheadOffsets,0,0|0,0|0,0|0,0|0,0|0,0
;   overrideFirmwareConfiguration,1
;   firmwareTypeOverride,RepRap (Marlin/Repetier/Sprinter)
;   GPXconfigOverride,r2
;   baudRateOverride,115200
;   overridePrinterModels,1
;   printerModelsOverride,LulzBot_TAZ3.stl
;   startingGcode,G28 ; home all axes,G1 X240 E20 F1500 ;,,
;   layerChangeGcode,
;   retractionGcode,
;   toolChangeGcode,
;   endingGcode,M104 S0 ; turn off extruder,M140 S0 ; turn off bed,G28 X0 ; home X axis,M84 ; disable motors,M106 S0;
;   exportFileFormat,gcode
;   celebration,0
;   celebrationSong,Random Song
;   postProcessing,
;   defaultSpeed,2250
;   outlineUnderspeed,0.6
;   solidInfillUnderspeed,0.6
;   supportUnderspeed,0.45
;   rapidXYspeed,4800
;   rapidZspeed,1000
;   minBridgingArea,50
;   bridgingExtraInflation,0
;   bridgingExtrusionMultiplier,1
;   bridgingSpeedMultiplier,1
;   filamentDiameter,2.85
;   filamentPricePerKg,53.33
;   filamentDensity,1.25
;   useMinPrintHeight,0
;   minPrintHeight,0
;   useMaxPrintHeight,0
;   maxPrintHeight,0
;   useDiaphragm,0
;   diaphragmLayerInterval,20
;   robustSlicing,1
;   mergeAllIntoSolid,0
;   onlyRetractWhenCrossingOutline,1
;   retractBetweenLayers,1
;   useRetractionMinTravel,0
;   retractionMinTravel,3
;   retractWhileWiping,0
;   onlyWipeOutlines,1
;   avoidCrossingOutline,0
;   maxMovementDetourFactor,3
;   toolChangeRetractionDistance,12
;   toolChangeExtraRestartDistance,-0.5
;   toolChangeRetractionSpeed,600
;   allowThinWallGapFill,1
;   thinWallAllowedOverlapPercentage,10
;   horizontalSizeCompensation,0
G90
M82
M106 S0
M140 S65
M190 S65
M104 S215 T0
M109 S215 T0
G28 ; home all axes
G1 X240 E20 F1500 ;
G92 E0
G1 E-3.0000 F500
G1 Z0.262 F1000
; layer 1, Z = 0.2625
T0
; tool H0.262 W0.630
; skirt
G1 X93.872 Y159.645 F4800
G1 E0.0000 F150
G92 E0
G1 X198.801 Y67.832 E3.6144 F1462
G1 X198.976 Y67.806 E3.6190
G1 X205.004 Y70.541 E3.7906
G1 X205.100 Y70.690 E3.7952
G1 X205.100 Y203.131 E7.2285
G1 X205.054 Y203.241 E7.2316
G1 X202.041 Y206.254 E7.3420
G1 X201.931 Y206.300 E7.3451
G1 X96.069 Y206.300 E10.0894
G1 X95.959 Y206.254 E10.0925
G1 X92.946 Y203.241 E10.2030
G1 X92.900 Y203.131 E10.2061
G1 X92.900 Y161.787 E11.2778
G1 X92.914 Y161.724 E11.2795
G1 X93.834 Y159.696 E11.3372
G1 X93.872 Y159.645 E11.3389
G92 E0
G1 E-3.0000 F500
; inner perimeter
G1 X99.775 Y163.615 F4800
G1 E0.0000 F500
G92 E0
G1 X198.225 Y77.471 E3.3912 F1268
G1 X198.225 Y199.425 E6.5527
G1 X99.775 Y199.425 E9.1048
G1 X99.775 Y163.615 E10.0331
; inner perimeter
G1 X99.145 Y163.329 F4800
G92 E0
G1 X198.855 Y76.083 E3.4346 F1073
G1 X198.855 Y200.055 E6.6484
G1 X99.145 Y200.055 E9.2332
G1 X99.145 Y163.329 E10.1853
; outer perimeter
G1 X98.515 Y163.043 F4800
G92 E0
G1 X199.485 Y74.694 E3.4780 F878
G1 X199.485 Y200.685 E6.7441
G1 X98.515 Y200.685 E9.3616
G1 X98.515 Y163.043 E10.3374
; tool H0.262 W1.386
; infill
G1 X100.531 Y190.794 F4800
G92 E0
G1 X108.640 Y190.794 E0.4625 F1462
G1 X113.149 Y198.604 E0.9768
G1 X123.882 Y198.604 E1.5889
G1 X128.391 Y190.794 E2.1032
G1 X139.124 Y190.794 E2.7153
G1 X143.633 Y198.604 E3.2296
G1 X154.367 Y198.604 E3.8418
G1 X158.876 Y190.794 E4.3561
G1 X169.609 Y190.794 E4.9682
G1 X174.118 Y198.604 E5.4825
G1 X184.851 Y198.604 E6.0946
G1 X189.360 Y190.794 E6.6090
G1 X197.469 Y190.794 E7.0714
G1 X197.469 Y189.804 E7.1279
G1 X189.360 Y189.804 E7.5903
G1 X184.851 Y181.994 E8.1046
G1 X174.118 Y181.994 E8.7168
G1 X169.609 Y189.804 E9.2311
G1 X158.876 Y189.804 E9.8432
G1 X154.367 Y181.994 E10.3575
G1 X143.633 Y181.994 E10.9696
G1 X139.124 Y189.804 E11.4839
G1 X128.391 Y189.804 E12.0961
G1 X123.882 Y181.994 E12.6104
G1 X113.149 Y181.994 E13.2225
G1 X108.640 Y189.804 E13.7368
G1 X100.531 Y189.804 E14.1993
G1 X100.531 Y173.194 E15.1465
G1 X108.640 Y173.194 E15.6090
G1 X113.149 Y181.004 E16.1233
G1 X123.882 Y181.004 E16.7354
G1 X128.391 Y173.194 E17.2498
G1 X139.124 Y173.194 E17.8619
G1 X143.633 Y181.004 E18.3762
G1 X154.367 Y181.004 E18.9883
G1 X158.876 Y173.194 E19.5026
G1 X169.609 Y173.194 E20.1147
G1 X174.118 Y181.004 E20.6291
G1 X184.851 Y181.004 E21.2412
G1 X189.360 Y173.194 E21.7555
G1 X197.469 Y173.194 E22.2180
G1 X197.469 Y172.204 E22.2744
G1 X189.360 Y172.204 E22.7369
G1 X184.851 Y164.395 E23.2512
G1 X174.118 Y164.395 E23.8633
G1 X169.609 Y172.204 E24.3776
G1 X158.876 Y172.204 E24.9897
G1 X154.367 Y164.395 E25.5041
G1 X143.633 Y164.395 E26.1162
G1 X139.124 Y172.204 E26.6305
G1 X128.391 Y172.204 E27.2426
G1 X123.882 Y164.395 E27.7569
G1 X113.149 Y164.395 E28.3690
G1 X108.640 Y172.204 E28.8834
G1 X100.531 Y172.204 E29.3458
G1 X100.531 Y163.958 E29.8161
G1 X109.126 Y156.437 E30.4675
G1 X113.149 Y163.405 E30.9263
G1 X123.882 Y163.405 E31.5385
G1 X128.391 Y155.595 E32.0528
G1 X139.124 Y155.595 E32.6649
G1 X143.633 Y163.405 E33.1792
G1 X154.367 Y163.405 E33.7913
G1 X158.876 Y155.595 E34.3056
G1 X169.609 Y155.595 E34.9178
G1 X174.118 Y163.405 E35.4321
G1 X184.851 Y163.405 E36.0442
G1 X189.360 Y155.595 E36.5585
G1 X197.469 Y155.595 E37.0210
G1 X197.469 Y154.605 E37.0774
G1 X189.360 Y154.605 E37.5399
G1 X184.851 Y146.795 E38.0542
G1 X174.118 Y146.795 E38.6663
G1 X169.609 Y154.605 E39.1806
G1 X158.876 Y154.605 E39.7928
G1 X154.367 Y146.795 E40.3071
G1 X143.633 Y146.795 E40.9192
G1 X139.124 Y154.605 E41.4335
G1 X128.391 Y154.605 E42.0456
G1 X123.882 Y146.795 E42.5599
G1 X120.146 Y146.795 E42.7730
G1 X121.277 Y145.805 E42.8588
G1 X123.882 Y145.805 E43.0073
G1 X126.542 Y141.198 E43.3107
G1 X130.203 Y137.995 E43.5881
G1 X139.124 Y137.995 E44.0969
G1 X143.633 Y145.805 E44.6113
G1 X154.367 Y145.805 E45.2234
G1 X158.876 Y137.995 E45.7377
G1 X169.609 Y137.995 E46.3498
G1 X174.118 Y145.805 E46.8641
G1 X184.851 Y145.805 E47.4763
G1 X189.360 Y137.995 E47.9906
G1 X197.469 Y137.995 E48.4530
G1 X197.469 Y137.005 E48.5095
G1 X189.360 Y137.005 E48.9719
G1 X184.851 Y129.195 E49.4862
G1 X174.118 Y129.195 E50.0984
G1 X169.609 Y137.005 E50.6127
G1 X158.876 Y137.005 E51.2248
G1 X154.367 Y129.195 E51.7391
G1 X143.633 Y129.195 E52.3512
G1 X139.124 Y137.005 E52.8656
G1 X131.334 Y137.005 E53.3098
G1 X142.881 Y126.902 E54.1849
G1 X143.633 Y128.205 E54.2707
G1 X154.367 Y128.205 E54.8828
G1 X158.876 Y120.395 E55.3972
G1 X169.609 Y120.395 E56.0093
G1 X174.118 Y128.205 E56.5236
G1 X184.851 Y128.205 E57.1357
G1 X189.360 Y120.395 E57.6500
G1 X197.469 Y120.395 E58.1125
G1 X197.469 Y119.405 E58.1689
G1 X189.360 Y119.405 E58.6314
G1 X184.851 Y111.595 E59.1457
G1 X174.118 Y111.595 E59.7578
G1 X169.609 Y119.405 E60.2721
G1 X158.876 Y119.405 E60.8843
G1 X156.383 Y115.087 E61.1686
G1 X169.885 Y103.273 E62.1918
G1 X174.118 Y110.605 E62.6747
G1 X184.851 Y110.605 E63.2868
G1 X189.360 Y102.796 E63.8011
G1 X197.469 Y102.796 E64.2635
G1 X197.469 Y101.806 E64.3200
G1 X189.360 Y101.806 E64.7825
G1 X184.851 Y93.996 E65.2968
G1 X180.488 Y93.996 E65.5456
G1 X181.619 Y93.006 E65.6314
G1 X184.851 Y93.006 E65.8157
G1 X188.151 Y87.290 E66.1921
G1 X190.545 Y85.196 E66.3735
G1 X197.469 Y85.196 E66.7684
G1 X197.469 Y84.206 E66.8248
G1 X191.676 Y84.206 E67.1552
G92 E0
G1 E-3.0000 F500
; layer 2, Z = 0.5125
M106 S255
; tool H0.250 W0.600
; inner perimeter
G1 X198.300 Y77.306 F4800
G1 Z0.512 F1000
G1 E0.0000 F500
G92 E0
G1 X198.300 Y199.500 E2.8732 F1950
G1 X99.700 Y199.500 E5.1916
G1 X99.700 Y163.581 E6.0362
G1 X198.300 Y77.306 E9.1168
; inner perimeter
G1 X198.900 Y75.983 F4800
G92 E0
G1 X198.900 Y200.100 E2.9184 F1650
G1 X99.100 Y200.100 E5.2650
G1 X99.100 Y163.308 E6.1301
G1 X198.900 Y75.983 E9.2482
; outer perimeter
G1 X199.500 Y74.661 F4800
G92 E0
G1 X199.500 Y200.700 E2.9636 F1350
G1 X98.500 Y200.700 E5.3384
G1 X98.500 Y163.036 E6.2240
G1 X199.500 Y74.661 E9.3796
; tool H0.250 W1.320
; infill
G1 X188.323 Y86.992 F4800
G92 E0
G1 X184.565 Y93.501 E0.3888 F2250
G1 X189.646 Y102.301 E0.9144
G1 X184.565 Y111.100 E1.4400
G1 X189.646 Y119.900 E1.9657
G1 X184.565 Y128.700 E2.4913
G1 X189.646 Y137.500 E3.0169
G1 X184.565 Y146.300 E3.5426
G1 X189.646 Y155.100 E4.0682
G1 X184.565 Y163.900 E4.5938
G1 X189.646 Y172.699 E5.1195
G1 X184.565 Y181.499 E5.6451
G1 X189.646 Y190.299 E6.1707
G1 X184.750 Y198.780 E6.6773
G1 X174.220 Y198.780 E7.2220
G1 X169.323 Y190.299 E7.7286
G1 X174.404 Y181.499 E8.2542
G1 X169.323 Y172.699 E8.7799
G1 X174.404 Y163.900 E9.3055
G1 X169.323 Y155.100 E9.8311
G1 X174.404 Y146.300 E10.3568
G1 X169.323 Y137.500 E10.8824
G1 X174.404 Y128.700 E11.4080
G1 X169.323 Y119.900 E11.9337
G1 X174.404 Y111.100 E12.4593
G1 X169.828 Y103.175 E12.9327
G1 X156.326 Y114.989 E13.8607
G1 X159.162 Y119.900 E14.1541
G1 X154.081 Y128.700 E14.6797
G1 X159.162 Y137.500 E15.2053
G1 X154.081 Y146.300 E15.7310
G1 X159.162 Y155.100 E16.2566
G1 X154.081 Y163.900 E16.7822
G1 X159.162 Y172.699 E17.3079
G1 X154.081 Y181.499 E17.8335
G1 X159.162 Y190.299 E18.3591
G1 X154.265 Y198.780 E18.8657
G1 X143.735 Y198.780 E19.4104
G1 X138.839 Y190.299 E19.9170
G1 X143.919 Y181.499 E20.4426
G1 X138.839 Y172.699 E20.9683
G1 X143.919 Y163.900 E21.4939
G1 X138.839 Y155.100 E22.0195
G1 X143.919 Y146.300 E22.5452
G1 X138.839 Y137.500 E23.0708
G1 X143.919 Y128.700 E23.5964
G1 X142.824 Y126.804 E23.7097
G1 X126.714 Y140.900 E24.8171
G1 X123.596 Y146.300 E25.1396
G1 X128.677 Y155.100 E25.6652
G1 X123.596 Y163.900 E26.1909
G1 X128.677 Y172.699 E26.7165
G1 X123.596 Y181.499 E27.2422
G1 X128.677 Y190.299 E27.7678
G1 X123.780 Y198.780 E28.2744
G1 X113.250 Y198.780 E28.8191
G1 X108.354 Y190.299 E29.3256
G1 X113.435 Y181.499 E29.8513
G1 X108.354 Y172.699 E30.3769
G1 X113.435 Y163.900 E30.9025
G1 X109.069 Y156.339 E31.3541
G92 E0
G1 E-3.0000 F500
; layer 3, Z = 0.7625
; tool H0.250 W0.600
; inner perimeter
G1 X99.700 Y163.581 F4800
G1 Z0.762 F1000
G1 E0.0000 F500
G92 E0
G1 X198.300 Y77.306 E3.0806 F1950
G1 X198.300 Y199.500 E5.9538
G1 X99.700 Y199.500 E8.2722
G1 X99.700 Y163.581 E9.1168
; inner perimeter
G1 X99.100 Y163.308 F4800
G92 E0
G1 X198.900 Y75.983 E3.1181 F1650
G1 X198.900 Y200.100 E6.0365
G1 X99.100 Y200.100 E8.3831
G1 X99.100 Y163.308 E9.2482
; outer perimeter
G1 X98.500 Y163.036 F4800
G92 E0
G1 X199.500 Y74.661 E3.1556 F1350
G1 X199.500 Y200.700 E6.1192
G1 X98.500 Y200.700 E8.4940
G1 X98.500 Y163.036 E9.3796
; tool H0.250 W1.320
; infill
G1 X100.420 Y190.794 F4800
G92 E0
G1 X108.640 Y190.794 E0.4252 F2250
G1 X113.149 Y198.604 E0.8917
G1 X123.882 Y198.604 E1.4469
G1 X128.391 Y190.794 E1.9134
G1 X139.124 Y190.794 E2.4686
G1 X143.633 Y198.604 E2.9351
G1 X154.367 Y198.604 E3.4903
G1 X158.876 Y190.794 E3.9568
G1 X169.609 Y190.794 E4.5120
G1 X174.118 Y198.604 E4.9785
G1 X184.851 Y198.604 E5.5338
G1 X189.360 Y190.794 E6.0003
G1 X197.580 Y190.794 E6.4255
G1 X197.580 Y189.804 E6.4767
G1 X189.360 Y189.804 E6.9019
G1 X184.851 Y181.994 E7.3684
G1 X174.118 Y181.994 E7.9236
G1 X169.609 Y189.804 E8.3901
G1 X158.876 Y189.804 E8.9453
G1 X154.367 Y181.994 E9.4118
G1 X143.633 Y181.994 E9.9670
G1 X139.124 Y189.804 E10.4335
G1 X128.391 Y189.804 E10.9887
G1 X123.882 Y181.994 E11.4552
G1 X113.149 Y181.994 E12.0104
G1 X108.640 Y189.804 E12.4769
G1 X100.420 Y189.804 E12.9021
G1 X100.420 Y173.194 E13.7613
G1 X108.640 Y173.194 E14.1865
G1 X113.149 Y181.004 E14.6530
G1 X123.882 Y181.004 E15.2082
G1 X128.391 Y173.194 E15.6747
G1 X139.124 Y173.194 E16.2300
G1 X143.633 Y181.004 E16.6965
G1 X154.367 Y181.004 E17.2517
G1 X158.876 Y173.194 E17.7182
G1 X169.609 Y173.194 E18.2734
G1 X174.118 Y181.004 E18.7399
G1 X184.851 Y181.004 E19.2951
G1 X189.360 Y173.194 E19.7616
G1 X197.580 Y173.194 E20.1868
G1 X197.580 Y172.204 E20.2380
G1 X189.360 Y172.204 E20.6632
G1 X184.851 Y164.395 E21.1297
G1 X174.118 Y164.395 E21.6849
G1 X169.609 Y172.204 E22.1514
G1 X158.876 Y172.204 E22.7066
G1 X154.367 Y164.395 E23.1731
G1 X143.633 Y164.395 E23.7283
G1 X139.124 Y172.204 E24.1948
G1 X128.391 Y172.204 E24.7500
G1 X123.882 Y164.395 E25.2165
G1 X113.149 Y164.395 E25.7718
G1 X108.640 Y172.204 E26.2383
G1 X100.420 Y172.204 E26.6635
G1 X100.420 Y163.907 E27.0927
G1 X109.069 Y156.339 E27.6872
G1 X113.149 Y163.405 E28.1092
G1 X123.882 Y163.405 E28.6644
G1 X128.391 Y155.595 E29.1309
G1 X139.124 Y155.595 E29.6862
G1 X143.633 Y163.405 E30.1527
G1 X154.367 Y163.405 E30.7079
G1 X158.876 Y155.595 E31.1744
G1 X169.609 Y155.595 E31.7296
G1 X174.118 Y163.405 E32.1961
G1 X184.851 Y163.405 E32.7513
G1 X189.360 Y155.595 E33.2178
G1 X197.580 Y155.595 E33.6430
G1 X197.580 Y154.605 E33.6942
G1 X189.360 Y154.605 E34.1194
G1 X184.851 Y146.795 E34.5859
G1 X174.118 Y146.795 E35.1411
G1 X169.609 Y154.605 E35.6076
G1 X158.876 Y154.605 E36.1628
G1 X154.367 Y146.795 E36.6293
G1 X143.633 Y146.795 E37.1845
G1 X139.124 Y154.605 E37.6510
G1 X128.391 Y154.605 E38.2062
