; G-Code generated by Simplify3D(R) Version 3.1.1
; Feb 24, 2017 at 7:13:38 PM
; Settings Summary
;   processName,Process1
;   applyToModels,Tetrahedron
;   profileName,LulzBot TAZ 5 (5mm) (modified)
;   profileVersion,2017-02-10 17:29:49
;   baseProfile,LulzBot TAZ 5
;   printMaterial,Bridge
;   printQuality,Medium
;   printExtruders,
;   extruderName,Primary Extruder
;   extruderToolheadNumber,0
;   extruderDiameter,0.5
;   extruderAutoWidth,1
;   extruderWidth,0.6
;   extrusionMultiplier,0.95
;   extruderUseRetract,1
;   extruderRetractionDistance,3
;   extruderExtraRestartDistance,0
;   extruderRetractionZLift,0
;   extruderRetractionSpeed,500
;   extruderUseCoasting,0
;   extruderCoastingDistance,0.2
;   extruderUseWipe,0
;   extruderWipeDistance,5
;   primaryExtruder,0
;   layerHeight,0.2
;   topSolidLayers,2
;   bottomSolidLayers,2
;   perimeterOutlines,1
;   printPerimetersInsideOut,1
;   startPointOption,2
;   startPointOriginX,0
;   startPointOriginY,0
;   startPointOriginZ,300
;   sequentialIslands,0
;   spiralVaseMode,1
;   firstLayerHeightPercentage,105
;   firstLayerWidthPercentage,105
;   firstLayerUnderspeed,0.5
;   useRaft,0
;   raftExtruder,0
;   raftLayers,3
;   raftOffset,3
;   raftSeparationDistance,0.14
;   raftInfill,85
;   disableRaftBaseLayers,0
;   useSkirt,1
;   skirtExtruder,0
;   skirtLayers,1
;   skirtOutlines,1
;   skirtOffset,5
;   usePrimePillar,0
;   primePillarExtruder,999
;   primePillarWidth,12
;   primePillarLocation,7
;   primePillarSpeedMultiplier,1
;   useOozeShield,0
;   oozeShieldExtruder,999
;   oozeShieldOffset,2
;   oozeShieldOutlines,1
;   oozeShieldSidewallShape,1
;   oozeShieldSidewallAngle,30
;   oozeShieldSpeedMultiplier,1
;   infillExtruder,0
;   internalInfillPattern,Rectilinear
;   externalInfillPattern,Rectilinear
;   infillPercentage,0
;   outlineOverlapPercentage,40
;   infillExtrusionWidthPercentage,220
;   minInfillLength,5
;   infillLayerInterval,1
;   infillAngles,45,-45
;   overlapInfillAngles,0
;   generateSupport,0
;   supportExtruder,0
;   supportInfillPercentage,15
;   supportExtraInflation,0
;   denseSupportLayers,0
;   denseSupportInfillPercentage,70
;   supportLayerInterval,1
;   supportHorizontalPartOffset,0.3
;   supportUpperSeparationLayers,1
;   supportLowerSeparationLayers,1
;   supportType,1
;   supportGridSpacing,4
;   maxOverhangAngle,15
;   supportAngles,0,45
;   temperatureName,Primary Extruder,Heated Bed
;   temperatureNumber,0,1
;   temperatureSetpointCount,1,1
;   temperatureSetpointLayers,1,1
;   temperatureSetpointTemperatures,250,45
;   temperatureStabilizeAtStartup,1,1
;   temperatureHeatedBed,0,1
;   temperatureRelayBetweenLayers,0,0
;   temperatureRelayBetweenLoops,0,0
;   fanLayers,1,150
;   fanSpeeds,0,100
;   blipFanToFullPower,0
;   adjustSpeedForCooling,1
;   minSpeedLayerTime,15
;   minCoolingSpeedSlowdown,20
;   increaseFanForCooling,0
;   minFanLayerTime,45
;   maxCoolingFanSpeed,100
;   increaseFanForBridging,0
;   bridgingFanSpeed,100
;   use5D,1
;   relativeEdistances,0
;   allowEaxisZeroing,1
;   independentExtruderAxes,0
;   includeM10123,0
;   stickySupport,1
;   applyToolheadOffsets,0
;   gcodeXoffset,0
;   gcodeYoffset,0
;   gcodeZoffset,0
;   overrideMachineDefinition,1
;   machineTypeOverride,0
;   strokeXoverride,298
;   strokeYoverride,275
;   strokeZoverride,250
;   originOffsetXoverride,0
;   originOffsetYoverride,0
;   originOffsetZoverride,0
;   homeXdirOverride,-1
;   homeYdirOverride,-1
;   homeZdirOverride,-1
;   flipXoverride,1
;   flipYoverride,-1
;   flipZoverride,1
;   toolheadOffsets,0,0|0,0|0,0|0,0|0,0|0,0
;   overrideFirmwareConfiguration,1
;   firmwareTypeOverride,RepRap (Marlin/Repetier/Sprinter)
;   GPXconfigOverride,r2
;   baudRateOverride,115200
;   overridePrinterModels,1
;   printerModelsOverride,LulzBot_TAZ3.stl
;   startingGcode,G28 ; home all axes,G1 X240 E20 F1500 ;,,
;   layerChangeGcode,
;   retractionGcode,
;   toolChangeGcode,
;   endingGcode,M104 S0 ; turn off extruder,M140 S0 ; turn off bed,G28 X0 ; home X axis,M84 ; disable motors,M106 S0;
;   exportFileFormat,gcode
;   celebration,0
;   celebrationSong,Random Song
;   postProcessing,
;   defaultSpeed,1500
;   outlineUnderspeed,0.2
;   solidInfillUnderspeed,0.2
;   supportUnderspeed,0.5
;   rapidXYspeed,4800
;   rapidZspeed,1000
;   minBridgingArea,50
;   bridgingExtraInflation,0
;   bridgingExtrusionMultiplier,1
;   bridgingSpeedMultiplier,1
;   filamentDiameter,2.85
;   filamentPricePerKg,53.33
;   filamentDensity,1.25
;   useMinPrintHeight,0
;   minPrintHeight,0
;   useMaxPrintHeight,0
;   maxPrintHeight,0
;   useDiaphragm,0
;   diaphragmLayerInterval,20
;   robustSlicing,1
;   mergeAllIntoSolid,0
;   onlyRetractWhenCrossingOutline,1
;   retractBetweenLayers,1
;   useRetractionMinTravel,0
;   retractionMinTravel,3
;   retractWhileWiping,0
;   onlyWipeOutlines,1
;   avoidCrossingOutline,0
;   maxMovementDetourFactor,3
;   toolChangeRetractionDistance,12
;   toolChangeExtraRestartDistance,-0.5
;   toolChangeRetractionSpeed,600
;   allowThinWallGapFill,1
;   thinWallAllowedOverlapPercentage,10
;   horizontalSizeCompensation,0
G90
M82
M106 S0
M140 S45
M190 S45
M104 S250 T0
M109 S250 T0
G28 ; home all axes
G1 X240 E20 F1500 ;
G92 E0
G1 E-3.0000 F500
G1 Z0.210 F1000
; layer 1, Z = 0.21
T0
; tool H0.210 W0.630
; skirt
G1 X145.894 Y122.578 F4800
G1 E0.0000 F150
G92 E0
G1 X146.033 Y122.498 E0.0032 F750
G1 X151.967 Y122.498 E0.1201
G1 X152.106 Y122.578 E0.1233
G1 X180.409 Y171.600 E1.2385
G1 X180.409 Y171.761 E1.2416
G1 X177.442 Y176.900 E1.3586
G1 X177.303 Y176.981 E1.3617
G1 X120.697 Y176.981 E2.4770
G1 X120.558 Y176.900 E2.4801
G1 X117.591 Y171.761 E2.5970
G1 X117.591 Y171.600 E2.6002
G1 X145.894 Y122.578 E3.7154
G92 E0
G1 E-3.0000 F500
; outer perimeter
G1 X149.000 Y128.428 F4800
G1 E0.0000 F500
G92 E0
G1 X173.790 Y171.365 E0.9768 F150
G1 X124.210 Y171.365 E1.9536
G1 X149.000 Y128.428 E2.9304
; solid layer
G1 X148.984 Y129.212 F4800
G92 E0
G1 X149.061 Y129.290 E0.0022 F150
G1 X150.278 Y131.398 E0.0501
G1 X148.657 Y129.777 E0.0953
G1 X148.331 Y130.342 E0.1081
G1 X151.495 Y133.506 E0.1963
G1 X152.712 Y135.614 E0.2442
G1 X148.005 Y130.907 E0.3754
G1 X147.679 Y131.472 E0.3882
G1 X153.930 Y137.722 E0.5624
G1 X155.147 Y139.830 E0.6104
G1 X147.353 Y132.036 E0.8275
G1 X147.027 Y132.601 E0.8404
G1 X156.364 Y141.938 E1.1005
G1 X157.581 Y144.046 E1.1485
G1 X146.701 Y133.166 E1.4516
G1 X146.375 Y133.731 E1.4644
G1 X158.798 Y146.154 E1.8106
G1 X160.015 Y148.262 E1.8585
G1 X146.049 Y134.296 E2.2477
G1 X145.722 Y134.861 E2.2605
G1 X161.232 Y150.370 E2.6926
G1 X162.449 Y152.478 E2.7406
G1 X145.396 Y135.425 E3.2157
G1 X145.070 Y135.990 E3.2286
G1 X163.666 Y154.586 E3.7467
G1 X164.883 Y156.694 E3.7947
G1 X144.744 Y136.555 E4.3558
G1 X144.418 Y137.120 E4.3686
G1 X166.100 Y158.802 E4.9727
G1 X167.317 Y160.910 E5.0207
G1 X144.092 Y137.685 E5.6678
G1 X143.766 Y138.250 E5.6807
G1 X168.534 Y163.018 E6.3708
G1 X169.751 Y165.126 E6.4187
G1 X143.440 Y138.815 E7.1518
G1 X143.114 Y139.379 E7.1647
G1 X170.968 Y167.234 E7.9408
G1 X172.185 Y169.342 E7.9887
G1 X142.787 Y139.944 E8.8078
G1 X142.461 Y140.509 E8.8207
G1 X172.940 Y170.988 E9.6699
G1 X172.049 Y170.988 E9.6875
G1 X142.135 Y141.074 E10.5209
G1 X141.809 Y141.639 E10.5338
G1 X171.158 Y170.988 E11.3515
G1 X170.267 Y170.988 E11.3691
G1 X141.483 Y142.204 E12.1710
G1 X141.157 Y142.768 E12.1839
G1 X169.376 Y170.988 E12.9701
G1 X168.485 Y170.988 E12.9877
G1 X140.831 Y143.333 E13.7582
G1 X140.505 Y143.898 E13.7711
G1 X167.594 Y170.988 E14.5258
G1 X166.703 Y170.988 E14.5434
G1 X140.179 Y144.463 E15.2824
G1 X139.852 Y145.028 E15.2953
G1 X165.812 Y170.988 E16.0186
G1 X164.921 Y170.988 E16.0361
G1 X139.526 Y145.593 E16.7437
G1 X139.200 Y146.157 E16.7565
G1 X164.030 Y170.988 E17.4484
G1 X163.139 Y170.988 E17.4659
G1 X138.874 Y146.722 E18.1420
G1 X138.548 Y147.287 E18.1549
G1 X162.248 Y170.988 E18.8152
G1 X161.357 Y170.988 E18.8328
G1 X138.222 Y147.852 E19.4774
G1 X137.896 Y148.417 E19.4902
G1 X160.466 Y170.988 E20.1191
G1 X159.575 Y170.988 E20.1367
G1 X137.570 Y148.982 E20.7498
G1 X137.244 Y149.547 E20.7626
G1 X158.685 Y170.988 E21.3600
G1 X157.794 Y170.988 E21.3776
G1 X136.917 Y150.111 E21.9592
G1 X136.591 Y150.676 E21.9721
G1 X156.903 Y170.988 E22.5380
G1 X156.012 Y170.988 E22.5556
G1 X136.265 Y151.241 E23.1058
G1 X135.939 Y151.806 E23.1186
G1 X155.121 Y170.988 E23.6531
G1 X154.230 Y170.988 E23.6706
G1 X135.613 Y152.371 E24.1893
G1 X135.287 Y152.936 E24.2022
G1 X153.339 Y170.988 E24.7051
G1 X152.448 Y170.988 E24.7227
G1 X134.961 Y153.500 E25.2099
G1 X134.635 Y154.065 E25.2228
G1 X151.557 Y170.988 E25.6943
G1 X150.666 Y170.988 E25.7118
G1 X134.309 Y154.630 E26.1676
G1 X133.982 Y155.195 E26.1804
G1 X149.775 Y170.988 E26.6204
G1 X148.884 Y170.988 E26.6380
G1 X133.656 Y155.760 E27.0623
G1 X133.330 Y156.325 E27.0751
G1 X147.993 Y170.988 E27.4837
G1 X147.102 Y170.988 E27.5012
G1 X133.004 Y156.889 E27.8940
G1 X132.678 Y157.454 E27.9069
G1 X146.211 Y170.988 E28.2839
G1 X145.320 Y170.988 E28.3015
G1 X132.352 Y158.019 E28.6628
G1 X132.026 Y158.584 E28.6757
G1 X144.429 Y170.988 E29.0213
G1 X143.538 Y170.988 E29.0388
G1 X131.700 Y159.149 E29.3687
G1 X131.374 Y159.714 E29.3815
G1 X142.647 Y170.988 E29.6956
G1 X141.756 Y170.988 E29.7132
G1 X131.047 Y160.279 E30.0116
G1 X130.721 Y160.843 E30.0244
G1 X140.865 Y170.988 E30.3071
G1 X139.974 Y170.988 E30.3246
G1 X130.395 Y161.408 E30.5915
G1 X130.069 Y161.973 E30.6044
G1 X139.084 Y170.988 E30.8555
G1 X138.193 Y170.988 E30.8731
G1 X129.743 Y162.538 E31.1085
G1 X129.417 Y163.103 E31.1214
G1 X137.302 Y170.988 E31.3411
G1 X136.411 Y170.988 E31.3586
G1 X129.091 Y163.668 E31.5626
G1 X128.765 Y164.232 E31.5754
G1 X135.520 Y170.988 E31.7636
G1 X134.629 Y170.988 E31.7812
G1 X128.439 Y164.797 E31.9536
G1 X128.112 Y165.362 E31.9665
G1 X133.738 Y170.988 E32.1232
G1 X132.847 Y170.988 E32.1408
G1 X127.786 Y165.927 E32.2818
G1 X127.460 Y166.492 E32.2946
G1 X131.956 Y170.988 E32.4199
G1 X131.065 Y170.988 E32.4374
G1 X127.134 Y167.057 E32.5470
G1 X126.808 Y167.621 E32.5598
G1 X130.174 Y170.988 E32.6536
G1 X129.283 Y170.988 E32.6712
G1 X126.482 Y168.186 E32.7492
G1 X126.156 Y168.751 E32.7621
G1 X128.392 Y170.988 E32.8244
G1 X127.501 Y170.988 E32.8419
G1 X125.830 Y169.316 E32.8885
G1 X125.504 Y169.881 E32.9013
G1 X126.610 Y170.988 E32.9322
G1 X125.719 Y170.988 E32.9497
G1 X125.177 Y170.446 E32.9648
G92 E0
G1 E-3.0000 F500
; layer 2, Z = 0.41
; tool H0.200 W0.600
; outer perimeter
G1 X124.309 Y171.308 F4800
G1 Z0.410 F1000
G1 E0.0000 F500
G92 E0
G1 X149.000 Y128.543 E0.8824 F300
G1 X173.691 Y171.308 E1.7649
G1 X124.309 Y171.308 E2.6473
; solid layer
G1 X172.745 Y170.948 F4800
G92 E0
G1 X172.949 Y170.744 E0.0052 F300
G1 X172.638 Y170.206 E0.0163
G1 X171.896 Y170.948 E0.0350
G1 X171.048 Y170.948 E0.0502
G1 X172.328 Y169.668 E0.0825
G1 X172.017 Y169.130 E0.0936
G1 X170.199 Y170.948 E0.1396
G1 X169.350 Y170.948 E0.1548
G1 X171.707 Y168.592 E0.2143
G1 X171.396 Y168.054 E0.2254
G1 X168.502 Y170.948 E0.2985
G1 X167.653 Y170.948 E0.3137
G1 X171.085 Y167.516 E0.4004
G1 X170.775 Y166.978 E0.4115
G1 X166.805 Y170.948 E0.5119
G1 X165.956 Y170.948 E0.5270
G1 X170.464 Y166.440 E0.6410
G1 X170.154 Y165.902 E0.6521
G1 X165.108 Y170.948 E0.7796
G1 X164.259 Y170.948 E0.7947
G1 X169.843 Y165.364 E0.9359
G1 X169.533 Y164.826 E0.9470
G1 X163.411 Y170.948 E1.1017
G1 X162.562 Y170.948 E1.1168
G1 X169.222 Y164.288 E1.2851
G1 X168.911 Y163.750 E1.2962
G1 X161.714 Y170.948 E1.4781
G1 X160.865 Y170.948 E1.4933
G1 X168.601 Y163.212 E1.6888
G1 X168.290 Y162.674 E1.6999
G1 X160.017 Y170.948 E1.9090
G1 X159.168 Y170.948 E1.9242
G1 X167.980 Y162.136 E2.1468
G1 X167.669 Y161.599 E2.1579
G1 X158.320 Y170.948 E2.3942
G1 X157.471 Y170.948 E2.4094
G1 X167.358 Y161.061 E2.6593
G1 X167.048 Y160.523 E2.6704
G1 X156.623 Y170.948 E2.9338
G1 X155.774 Y170.948 E2.9490
G1 X166.737 Y159.985 E3.2261
G1 X166.427 Y159.447 E3.2372
G1 X154.925 Y170.948 E3.5278
G1 X154.077 Y170.948 E3.5430
G1 X166.116 Y158.909 E3.8472
G1 X165.806 Y158.371 E3.8583
G1 X153.228 Y170.948 E4.1762
G1 X152.380 Y170.948 E4.1914
G1 X165.495 Y157.833 E4.5228
G1 X165.184 Y157.295 E4.5339
G1 X151.531 Y170.948 E4.8789
G1 X150.683 Y170.948 E4.8941
G1 X164.874 Y156.757 E5.2527
G1 X164.563 Y156.219 E5.2638
G1 X149.834 Y170.948 E5.6361
G1 X148.986 Y170.948 E5.6512
G1 X164.253 Y155.681 E6.0371
G1 X163.942 Y155.143 E6.0482
G1 X148.137 Y170.948 E6.4476
G1 X147.289 Y170.948 E6.4627
G1 X163.632 Y154.605 E6.8758
G1 X163.321 Y154.067 E6.8869
G1 X146.440 Y170.948 E7.3135
G1 X145.592 Y170.948 E7.3286
G1 X163.010 Y153.529 E7.7688
G1 X162.700 Y152.991 E7.7799
G1 X144.743 Y170.948 E8.2337
G1 X143.895 Y170.948 E8.2489
G1 X162.389 Y152.453 E8.7163
G1 X162.079 Y151.916 E8.7274
G1 X143.046 Y170.948 E9.2084
G1 X142.198 Y170.948 E9.2235
G1 X161.768 Y151.378 E9.7181
G1 X161.457 Y150.840 E9.7292
G1 X141.349 Y170.948 E10.2374
G1 X140.501 Y170.948 E10.2526
G1 X161.147 Y150.302 E10.7743
G1 X160.836 Y149.764 E10.7854
G1 X139.652 Y170.948 E11.3208
G1 X138.803 Y170.948 E11.3360
G1 X160.526 Y149.226 E11.8849
G1 X160.215 Y148.688 E11.8960
G1 X137.955 Y170.948 E12.4586
G1 X137.106 Y170.948 E12.4738
G1 X159.905 Y148.150 E13.0499
G1 X159.594 Y147.612 E13.0610
G1 X136.258 Y170.948 E13.6508
G1 X135.409 Y170.948 E13.6659
G1 X159.283 Y147.074 E14.2693
G1 X158.973 Y146.536 E14.2804
G1 X134.561 Y170.948 E14.8973
G1 X133.712 Y170.948 E14.9125
G1 X158.662 Y145.998 E15.5430
G1 X158.352 Y145.460 E15.5541
G1 X132.864 Y170.948 E16.1983
G1 X132.015 Y170.948 E16.2134
G1 X158.041 Y144.922 E16.8711
G1 X157.730 Y144.384 E16.8822
G1 X131.167 Y170.948 E17.5536
G1 X130.318 Y170.948 E17.5687
G1 X157.420 Y143.846 E18.2536
G1 X157.109 Y143.308 E18.2647
G1 X129.470 Y170.948 E18.9632
G1 X128.621 Y170.948 E18.9784
G1 X156.799 Y142.770 E19.6905
G1 X156.488 Y142.233 E19.7016
G1 X127.773 Y170.948 E20.4273
G1 X126.924 Y170.948 E20.4425
G1 X156.178 Y141.695 E21.1818
G1 X155.867 Y141.157 E21.1929
G1 X126.076 Y170.948 E21.9458
G1 X125.227 Y170.948 E21.9609
G1 X155.556 Y140.619 E22.7274
G1 X155.246 Y140.081 E22.7385
G1 X125.690 Y169.636 E23.4854
G1 X126.850 Y167.628 E23.5269
G1 X154.935 Y139.543 E24.2366
G1 X154.625 Y139.005 E24.2477
G1 X128.009 Y165.621 E24.9204
G1 X129.168 Y163.613 E24.9618
G1 X154.314 Y138.467 E25.5973
G1 X154.003 Y137.929 E25.6084
G1 X130.327 Y161.605 E26.2068
G1 X131.486 Y159.598 E26.2482
G1 X153.693 Y137.391 E26.8094
G1 X153.382 Y136.853 E26.8205
G1 X132.645 Y157.590 E27.3446
G1 X133.804 Y155.583 E27.3860
G1 X153.072 Y136.315 E27.8729
G1 X152.761 Y135.777 E27.8840
G1 X134.963 Y153.575 E28.3338
G1 X136.122 Y151.567 E28.3752
G1 X152.451 Y135.239 E28.7879
G1 X152.140 Y134.701 E28.7990
G1 X137.282 Y149.560 E29.1745
G1 X138.441 Y147.552 E29.2159
G1 X151.829 Y134.163 E29.5543
G1 X151.519 Y133.625 E29.5654
G1 X139.600 Y145.544 E29.8666
G1 X140.759 Y143.537 E29.9080
G1 X151.208 Y133.087 E30.1721
G1 X150.898 Y132.549 E30.1832
G1 X141.918 Y141.529 E30.4101
G1 X143.077 Y139.521 E30.4515
G1 X150.587 Y132.012 E30.6413
G1 X150.276 Y131.474 E30.6524
G1 X144.236 Y137.514 E30.8051
G1 X145.395 Y135.506 E30.8465
G1 X149.966 Y130.936 E30.9620
G1 X149.655 Y130.398 E30.9731
G1 X146.554 Y133.499 E31.0515
G1 X147.714 Y131.491 E31.0929
G1 X149.345 Y129.860 E31.1341
G1 X149.034 Y129.322 E31.1452
G1 X148.873 Y129.483 E31.1493
; layer 3, Z = 0.61
; outer perimeter
G1 X149.000 Y128.684 F4800
G92 E0
G1 X173.568 Y171.237 Z0.410 E0.5854 F300
G1 X124.432 Y171.237 Z0.477 E1.3171
G1 X149.000 Y128.684 Z0.543 E2.1952
; layer 4, Z = 0.81
; outer perimeter
G92 E0
G1 X173.446 Y171.167 Z0.610 E0.8759 F300
G1 X124.554 Y171.167 Z0.677 E1.7496
G1 X149.000 Y128.826 Z0.743 E2.6233
; layer 5, Z = 1.01
; outer perimeter
G92 E0
G1 X173.323 Y171.096 Z0.810 E0.8715 F300
G1 X124.677 Y171.096 Z0.877 E1.7408
G1 X149.000 Y128.967 Z0.943 E2.6101
; layer 6, Z = 1.21
; outer perimeter
G92 E0
G1 X173.201 Y171.025 Z1.010 E0.8671 F300
G1 X124.799 Y171.025 Z1.077 E1.7321
G1 X149.000 Y129.108 Z1.143 E2.5970
; layer 7, Z = 1.41
; outer perimeter
G92 E0
G1 X173.078 Y170.954 Z1.210 E0.8627 F300
G1 X124.922 Y170.954 Z1.277 E1.7233
G1 X149.000 Y129.250 Z1.343 E2.5839
