; G-Code generated by Simplify3D(R) Version 3.1.1
; Mar 27, 2017 at 1:32:44 PM
; Settings Summary
;   processName,Process1
;   applyToModels,Wire Chain link
;   profileName,LulzBot TAZ 5 PLA (modified)
;   profileVersion,2017-03-21 07:25:56
;   baseProfile,LulzBot TAZ 5
;   printMaterial,PLA
;   printQuality,Medium
;   printExtruders,
;   extruderName,Primary Extruder
;   extruderToolheadNumber,0
;   extruderDiameter,0.5
;   extruderAutoWidth,1
;   extruderWidth,0.6
;   extrusionMultiplier,1.02
;   extruderUseRetract,1
;   extruderRetractionDistance,3
;   extruderExtraRestartDistance,0
;   extruderRetractionZLift,0
;   extruderRetractionSpeed,498
;   extruderUseCoasting,0
;   extruderCoastingDistance,0.2
;   extruderUseWipe,0
;   extruderWipeDistance,5
;   primaryExtruder,0
;   layerHeight,0.3
;   topSolidLayers,2
;   bottomSolidLayers,2
;   perimeterOutlines,2
;   printPerimetersInsideOut,1
;   startPointOption,1
;   startPointOriginX,0
;   startPointOriginY,0
;   startPointOriginZ,300
;   sequentialIslands,0
;   spiralVaseMode,0
;   firstLayerHeightPercentage,105
;   firstLayerWidthPercentage,105
;   firstLayerUnderspeed,0.5
;   useRaft,0
;   raftExtruder,0
;   raftLayers,3
;   raftOffset,3
;   raftSeparationDistance,0.14
;   raftInfill,85
;   disableRaftBaseLayers,0
;   useSkirt,1
;   skirtExtruder,0
;   skirtLayers,1
;   skirtOutlines,10
;   skirtOffset,0
;   usePrimePillar,0
;   primePillarExtruder,999
;   primePillarWidth,12
;   primePillarLocation,7
;   primePillarSpeedMultiplier,1
;   useOozeShield,0
;   oozeShieldExtruder,999
;   oozeShieldOffset,2
;   oozeShieldOutlines,1
;   oozeShieldSidewallShape,1
;   oozeShieldSidewallAngle,30
;   oozeShieldSpeedMultiplier,1
;   infillExtruder,0
;   internalInfillPattern,Rectilinear
;   externalInfillPattern,Rectilinear
;   infillPercentage,20
;   outlineOverlapPercentage,40
;   infillExtrusionWidthPercentage,220
;   minInfillLength,5
;   infillLayerInterval,1
;   infillAngles,45,-45
;   overlapInfillAngles,0
;   generateSupport,0
;   supportExtruder,0
;   supportInfillPercentage,25
;   supportExtraInflation,0
;   denseSupportLayers,0
;   denseSupportInfillPercentage,70
;   supportLayerInterval,1
;   supportHorizontalPartOffset,0.02
;   supportUpperSeparationLayers,1
;   supportLowerSeparationLayers,1
;   supportType,1
;   supportGridSpacing,4
;   maxOverhangAngle,15
;   supportAngles,0,45
;   temperatureName,Primary Extruder,Heated Bed
;   temperatureNumber,0,1
;   temperatureSetpointCount,1,1
;   temperatureSetpointLayers,1,1
;   temperatureSetpointTemperatures,210,65
;   temperatureStabilizeAtStartup,1,1
;   temperatureHeatedBed,0,1
;   temperatureRelayBetweenLayers,0,0
;   temperatureRelayBetweenLoops,0,0
;   fanLayers,1
;   fanSpeeds,0
;   blipFanToFullPower,0
;   adjustSpeedForCooling,1
;   minSpeedLayerTime,15
;   minCoolingSpeedSlowdown,20
;   increaseFanForCooling,0
;   minFanLayerTime,45
;   maxCoolingFanSpeed,100
;   increaseFanForBridging,0
;   bridgingFanSpeed,100
;   use5D,1
;   relativeEdistances,0
;   allowEaxisZeroing,1
;   independentExtruderAxes,0
;   includeM10123,0
;   stickySupport,1
;   applyToolheadOffsets,0
;   gcodeXoffset,0
;   gcodeYoffset,0
;   gcodeZoffset,0
;   overrideMachineDefinition,1
;   machineTypeOverride,0
;   strokeXoverride,298
;   strokeYoverride,275
;   strokeZoverride,250
;   originOffsetXoverride,0
;   originOffsetYoverride,0
;   originOffsetZoverride,0
;   homeXdirOverride,-1
;   homeYdirOverride,-1
;   homeZdirOverride,-1
;   flipXoverride,1
;   flipYoverride,-1
;   flipZoverride,1
;   toolheadOffsets,0,0|0,0|0,0|0,0|0,0|0,0
;   overrideFirmwareConfiguration,1
;   firmwareTypeOverride,RepRap (Marlin/Repetier/Sprinter)
;   GPXconfigOverride,r2
;   baudRateOverride,115200
;   overridePrinterModels,1
;   printerModelsOverride,LulzBot_TAZ3.stl
;   startingGcode,G28 ; home all axes,G1 X240 E20 F1500 ;,,
;   layerChangeGcode,
;   retractionGcode,
;   toolChangeGcode,
;   endingGcode,M104 S0 ; turn off extruder,M140 S0 ; turn off bed,G28 X0 ; home X axis,M84 ; disable motors,M106 S0;
;   exportFileFormat,gcode
;   celebration,0
;   celebrationSong,Random Song
;   postProcessing,
;   defaultSpeed,3300
;   outlineUnderspeed,0.75
;   solidInfillUnderspeed,0.75
;   supportUnderspeed,0.75
;   rapidXYspeed,4800
;   rapidZspeed,1002
;   minBridgingArea,50
;   bridgingExtraInflation,0
;   bridgingExtrusionMultiplier,1
;   bridgingSpeedMultiplier,1
;   filamentDiameter,2.85
;   filamentPricePerKg,53.33
;   filamentDensity,1.25
;   useMinPrintHeight,0
;   minPrintHeight,0
;   useMaxPrintHeight,0
;   maxPrintHeight,0
;   useDiaphragm,0
;   diaphragmLayerInterval,20
;   robustSlicing,1
;   mergeAllIntoSolid,0
;   onlyRetractWhenCrossingOutline,1
;   retractBetweenLayers,1
;   useRetractionMinTravel,0
;   retractionMinTravel,3
;   retractWhileWiping,0
;   onlyWipeOutlines,1
;   avoidCrossingOutline,1
;   maxMovementDetourFactor,3
;   toolChangeRetractionDistance,12
;   toolChangeExtraRestartDistance,-0.5
;   toolChangeRetractionSpeed,600
;   allowThinWallGapFill,0
;   thinWallAllowedOverlapPercentage,10
;   horizontalSizeCompensation,0
G90
M82
M106 S0
M140 S65
M190 S65
M104 S210 T0
M109 S210 T0
G28 ; home all axes
G1 X240 E20 F1500 ;
G92 E0
G1 E-3.0000 F498
G1 Z0.315 F1002
; layer 1, Z = 0.315
T0
; tool H0.315 W0.630
; skirt
G1 X126.632 Y116.089 F4800
G1 E0.0000 F149
G92 E0
G1 X129.971 Y112.750 E0.1498 F1650
G1 X157.575 Y112.750 E1.0257
G1 X160.914 Y116.089 E1.1755
G1 X160.914 Y117.322 E1.2146
G1 X165.391 Y117.322 E1.3567
G1 X168.730 Y120.661 E1.5065
G1 X168.730 Y131.733 E1.8579
G1 X165.972 Y134.491 E1.9816
G1 X165.972 Y140.509 E2.1726
G1 X168.730 Y143.267 E2.2963
G1 X168.730 Y154.339 E2.6477
G1 X165.391 Y157.678 E2.7975
G1 X160.914 Y157.678 E2.9396
G1 X160.914 Y158.911 E2.9787
G1 X157.575 Y162.250 E3.1285
G1 X129.971 Y162.250 E4.0044
G1 X126.632 Y158.911 E4.1542
G1 X126.632 Y150.633 E4.4169
G1 X129.971 Y147.294 E4.5667
G1 X136.950 Y147.294 E4.7881
G1 X136.950 Y141.806 E4.9623
G1 X137.107 Y141.648 E4.9693
G1 X137.107 Y133.352 E5.2326
G1 X136.950 Y133.194 E5.2397
G1 X136.950 Y127.706 E5.4138
G1 X129.971 Y127.706 E5.6352
G1 X126.632 Y124.367 E5.7851
G1 X126.632 Y116.089 E6.0477
G1 X127.232 Y116.338 F4800
G92 E0
G1 X130.220 Y113.350 E0.1341 F1650
G1 X157.326 Y113.350 E0.9941
G1 X160.314 Y116.338 E1.1282
G1 X160.314 Y117.922 E1.1785
G1 X165.143 Y117.922 E1.3317
G1 X168.130 Y120.910 E1.4658
G1 X168.130 Y131.484 E1.8013
G1 X165.372 Y134.242 E1.9251
G1 X165.372 Y140.758 E2.1318
G1 X168.130 Y143.516 E2.2556
G1 X168.130 Y154.090 E2.5911
G1 X165.143 Y157.078 E2.7252
G1 X160.314 Y157.078 E2.8784
G1 X160.314 Y158.662 E2.9287
G1 X157.326 Y161.650 E3.0627
G1 X130.220 Y161.650 E3.9228
G1 X127.232 Y158.662 E4.0569
G1 X127.232 Y150.882 E4.3038
G1 X130.220 Y147.894 E4.4378
G1 X137.550 Y147.894 E4.6704
G1 X137.550 Y142.055 E4.8557
G1 X137.707 Y141.897 E4.8628
G1 X137.707 Y133.103 E5.1418
G1 X137.550 Y132.945 E5.1489
G1 X137.550 Y127.106 E5.3341
G1 X130.220 Y127.106 E5.5667
G1 X127.232 Y124.118 E5.7008
G1 X127.232 Y116.338 E5.9477
G1 X127.832 Y116.586 F4800
G92 E0
G1 X130.469 Y113.950 E0.1183 F1650
G1 X157.077 Y113.950 E0.9626
G1 X159.714 Y116.586 E1.0809
G1 X159.714 Y118.522 E1.1423
G1 X164.894 Y118.522 E1.3067
G1 X167.530 Y121.158 E1.4250
G1 X167.530 Y131.236 E1.7448
G1 X164.894 Y133.872 E1.8630
G1 X164.772 Y133.872 E1.8669
G1 X164.772 Y141.128 E2.0971
G1 X164.894 Y141.128 E2.1010
G1 X167.530 Y143.764 E2.2193
G1 X167.530 Y153.842 E2.5391
G1 X164.894 Y156.478 E2.6574
G1 X159.714 Y156.478 E2.8218
G1 X159.714 Y158.414 E2.8832
G1 X157.077 Y161.050 E3.0015
G1 X130.469 Y161.050 E3.8458
G1 X127.832 Y158.414 E3.9641
G1 X127.832 Y151.130 E4.1952
G1 X130.469 Y148.494 E4.3135
G1 X138.150 Y148.494 E4.5572
G1 X138.150 Y142.303 E4.7536
G1 X138.307 Y142.146 E4.7607
G1 X138.307 Y132.854 E5.0555
G1 X138.150 Y132.697 E5.0626
G1 X138.150 Y126.506 E5.2590
G1 X130.469 Y126.506 E5.5028
G1 X127.832 Y123.870 E5.6210
G1 X127.832 Y116.586 E5.8522
G1 X128.432 Y116.835 F4800
G92 E0
G1 X130.717 Y114.550 E0.1025 F1650
G1 X156.829 Y114.550 E0.9310
G1 X159.114 Y116.835 E1.0336
G1 X159.114 Y119.122 E1.1061
G1 X164.646 Y119.122 E1.2817
G1 X166.930 Y121.407 E1.3842
G1 X166.930 Y130.987 E1.6882
G1 X164.646 Y133.272 E1.7907
G1 X164.172 Y133.272 E1.8057
G1 X164.172 Y141.728 E2.0741
G1 X164.646 Y141.728 E2.0891
G1 X166.930 Y144.013 E2.1916
G1 X166.930 Y153.593 E2.4956
G1 X164.646 Y155.878 E2.5981
G1 X159.114 Y155.878 E2.7736
G1 X159.114 Y158.165 E2.8462
G1 X156.829 Y160.450 E2.9487
G1 X130.717 Y160.450 E3.7773
G1 X128.432 Y158.165 E3.8798
G1 X128.432 Y151.379 E4.0951
G1 X130.717 Y149.094 E4.1977
G1 X138.750 Y149.094 E4.4525
G1 X138.750 Y142.552 E4.6601
G1 X138.907 Y142.394 E4.6672
G1 X138.907 Y132.606 E4.9778
G1 X138.750 Y132.448 E4.9848
G1 X138.750 Y125.906 E5.1924
G1 X130.717 Y125.906 E5.4473
G1 X128.432 Y123.621 E5.5498
G1 X128.432 Y116.835 E5.7652
G1 X129.032 Y117.083 F4800
G92 E0
G1 X130.966 Y115.150 E0.0867 F1650
G1 X156.580 Y115.150 E0.8995
G1 X158.514 Y117.083 E0.9862
G1 X158.514 Y119.722 E1.0700
G1 X164.397 Y119.722 E1.2567
G1 X166.330 Y121.655 E1.3434
G1 X166.330 Y130.739 E1.6317
G1 X164.397 Y132.672 E1.7184
G1 X163.572 Y132.672 E1.7446
G1 X163.572 Y142.328 E2.0510
G1 X164.397 Y142.328 E2.0771
G1 X166.330 Y144.261 E2.1639
G1 X166.330 Y153.345 E2.4521
G1 X164.397 Y155.278 E2.5388
G1 X158.514 Y155.278 E2.7255
G1 X158.514 Y157.917 E2.8093
G1 X156.580 Y159.850 E2.8960
G1 X130.966 Y159.850 E3.7088
G1 X129.032 Y157.917 E3.7955
G1 X129.032 Y151.627 E3.9951
G1 X130.966 Y149.694 E4.0818
G1 X139.350 Y149.694 E4.3479
G1 X139.350 Y142.800 E4.5666
G1 X139.507 Y142.643 E4.5737
G1 X139.507 Y132.357 E4.9000
G1 X139.350 Y132.200 E4.9071
G1 X139.350 Y125.306 E5.1259
G1 X130.966 Y125.306 E5.3919
G1 X129.032 Y123.373 E5.4786
G1 X129.032 Y117.083 E5.6782
G1 X129.632 Y117.332 F4800
G92 E0
G1 X131.214 Y115.750 E0.0710 F1650
G1 X156.332 Y115.750 E0.8680
G1 X157.914 Y117.332 E0.9389
G1 X157.914 Y120.322 E1.0338
G1 X164.149 Y120.322 E1.2317
G1 X165.730 Y121.904 E1.3026
G1 X165.730 Y130.490 E1.5751
G1 X164.149 Y132.072 E1.6461
G1 X163.009 Y132.072 E1.6822
G1 X162.972 Y132.109 E1.6839
G1 X162.972 Y142.891 E2.0260
G1 X163.009 Y142.928 E2.0277
G1 X164.149 Y142.928 E2.0638
G1 X165.730 Y144.510 E2.1348
G1 X165.730 Y153.096 E2.4072
G1 X164.149 Y154.678 E2.4782
G1 X157.914 Y154.678 E2.6761
G1 X157.914 Y157.668 E2.7709
G1 X156.332 Y159.250 E2.8419
G1 X131.214 Y159.250 E3.6389
G1 X129.632 Y157.668 E3.7099
G1 X129.632 Y151.876 E3.8937
G1 X131.214 Y150.294 E3.9647
G1 X139.950 Y150.294 E4.2418
G1 X139.950 Y143.049 E4.4717
G1 X140.107 Y142.891 E4.4788
G1 X140.107 Y132.109 E4.8209
G1 X139.950 Y131.951 E4.8280
G1 X139.950 Y124.706 E5.0579
G1 X131.214 Y124.706 E5.3351
G1 X129.632 Y123.124 E5.4061
G1 X129.632 Y117.332 E5.5899
G1 X130.232 Y117.580 F4800
G92 E0
G1 X131.463 Y116.350 E0.0552 F1650
G1 X156.083 Y116.350 E0.8364
G1 X157.314 Y117.580 E0.8916
G1 X157.314 Y120.922 E0.9977
G1 X163.900 Y120.922 E1.2067
G1 X165.130 Y122.152 E1.2619
G1 X165.130 Y130.242 E1.5185
G1 X163.900 Y131.472 E1.5737
G1 X162.530 Y131.472 E1.6172
G1 X162.530 Y131.703 E1.6245
G1 X162.372 Y131.860 E1.6316
G1 X162.372 Y143.140 E1.9895
G1 X162.530 Y143.297 E1.9966
G1 X162.530 Y143.528 E2.0039
G1 X163.900 Y143.528 E2.0474
G1 X165.130 Y144.758 E2.1026
G1 X165.130 Y152.848 E2.3593
G1 X163.900 Y154.078 E2.4145
G1 X157.314 Y154.078 E2.6235
G1 X157.314 Y157.420 E2.7295
G1 X156.083 Y158.650 E2.7847
G1 X131.463 Y158.650 E3.5659
G1 X130.232 Y157.420 E3.6211
G1 X130.232 Y152.124 E3.7892
G1 X131.463 Y150.894 E3.8444
G1 X140.550 Y150.894 E4.1327
G1 X140.550 Y143.297 E4.3738
G1 X140.707 Y143.140 E4.3808
G1 X140.707 Y131.860 E4.7387
G1 X140.550 Y131.703 E4.7458
G1 X140.550 Y124.106 E4.9868
G1 X131.463 Y124.106 E5.2752
G1 X130.232 Y122.876 E5.3304
G1 X130.232 Y117.580 E5.4984
G1 X130.832 Y117.829 F4800
G92 E0
G1 X131.711 Y116.950 E0.0394 F1650
G1 X155.835 Y116.950 E0.8049
G1 X156.714 Y117.829 E0.8443
G1 X156.714 Y121.522 E0.9615
G1 X163.652 Y121.522 E1.1816
G1 X164.530 Y122.401 E1.2211
G1 X164.530 Y129.993 E1.4620
G1 X163.652 Y130.872 E1.5014
G1 X161.930 Y130.872 E1.5561
G1 X161.930 Y131.454 E1.5745
G1 X161.772 Y131.612 E1.5816
G1 X161.772 Y143.388 E1.9553
G1 X161.930 Y143.546 E1.9623
G1 X161.930 Y144.128 E1.9808
G1 X163.652 Y144.128 E2.0354
G1 X164.530 Y145.007 E2.0749
G1 X164.530 Y152.599 E2.3158
G1 X163.652 Y153.478 E2.3552
G1 X156.714 Y153.478 E2.5754
G1 X156.714 Y157.171 E2.6926
G1 X155.835 Y158.050 E2.7320
G1 X131.711 Y158.050 E3.4974
G1 X130.832 Y157.171 E3.5369
G1 X130.832 Y152.373 E3.6891
G1 X131.711 Y151.494 E3.7285
G1 X141.150 Y151.494 E4.0280
G1 X141.150 Y143.546 E4.2802
G1 X141.307 Y143.388 E4.2873
G1 X141.307 Y131.612 E4.6610
G1 X141.150 Y131.454 E4.6680
G1 X141.150 Y123.506 E4.9202
G1 X131.711 Y123.506 E5.2197
G1 X130.832 Y122.627 E5.2592
G1 X130.832 Y117.829 E5.4114
G1 X131.432 Y118.077 F4800
G92 E0
G1 X131.960 Y117.550 E0.0237 F1650
G1 X155.586 Y117.550 E0.7733
G1 X156.114 Y118.077 E0.7970
G1 X156.114 Y122.122 E0.9253
G1 X163.403 Y122.122 E1.1566
G1 X163.930 Y122.649 E1.1803
G1 X163.930 Y129.745 E1.4054
G1 X163.403 Y130.272 E1.4291
G1 X161.330 Y130.272 E1.4949
G1 X161.330 Y131.206 E1.5245
G1 X161.172 Y131.363 E1.5316
G1 X161.172 Y143.637 E1.9210
G1 X161.330 Y143.794 E1.9281
G1 X161.330 Y144.728 E1.9577
G1 X163.403 Y144.728 E2.0235
G1 X163.930 Y145.255 E2.0471
G1 X163.930 Y152.351 E2.2723
G1 X163.403 Y152.878 E2.2960
G1 X156.114 Y152.878 E2.5273
G1 X156.114 Y156.923 E2.6556
G1 X155.586 Y157.450 E2.6793
G1 X131.960 Y157.450 E3.4289
G1 X131.432 Y156.923 E3.4526
G1 X131.432 Y152.621 E3.5891
G1 X131.960 Y152.094 E3.6127
G1 X141.750 Y152.094 E3.9234
G1 X141.750 Y143.794 E4.1867
G1 X141.907 Y143.637 E4.1938
G1 X141.907 Y131.363 E4.5832
G1 X141.750 Y131.206 E4.5903
G1 X141.750 Y122.906 E4.8537
G1 X131.960 Y122.906 E5.1643
G1 X131.432 Y122.379 E5.1880
G1 X131.432 Y118.077 E5.3245
G1 X132.032 Y118.326 F4800
G92 E0
G1 X132.208 Y118.150 E0.0079 F1650
G1 X155.338 Y118.150 E0.7418
G1 X155.514 Y118.326 E0.7497
G1 X155.514 Y122.722 E0.8892
G1 X163.155 Y122.722 E1.1316
G1 X163.330 Y122.898 E1.1395
G1 X163.330 Y129.496 E1.3489
G1 X163.155 Y129.672 E1.3568
G1 X160.730 Y129.672 E1.4337
G1 X160.730 Y130.957 E1.4745
G1 X160.572 Y131.115 E1.4816
G1 X160.572 Y143.885 E1.8868
G1 X160.730 Y144.043 E1.8938
G1 X160.730 Y145.328 E1.9346
G1 X163.155 Y145.328 E2.0115
G1 X163.330 Y145.504 E2.0194
G1 X163.330 Y152.102 E2.2288
G1 X163.155 Y152.278 E2.2367
G1 X155.514 Y152.278 E2.4791
G1 X155.514 Y156.674 E2.6186
G1 X155.338 Y156.850 E2.6265
G1 X132.208 Y156.850 E3.3604
G1 X132.032 Y156.674 E3.3683
G1 X132.032 Y152.870 E3.4890
G1 X132.208 Y152.694 E3.4969
G1 X142.350 Y152.694 E3.8187
G1 X142.350 Y144.043 E4.0932
G1 X142.507 Y143.885 E4.1003
G1 X142.507 Y131.115 E4.5055
G1 X142.350 Y130.957 E4.5126
G1 X142.350 Y122.306 E4.7871
G1 X132.208 Y122.306 E5.1089
G1 X132.032 Y122.130 E5.1168
G1 X132.032 Y118.326 E5.2375
; inner perimeter
G1 X154.269 Y151.033 F4800
G92 E0
G1 X154.269 Y155.605 E0.1451 F1444
G1 X133.277 Y155.605 E0.8111
G1 X133.277 Y153.939 E0.8640
G1 X143.595 Y153.939 E1.1914
G1 X143.595 Y145.112 E1.4714
G1 X143.752 Y145.112 E1.4764
G1 X143.752 Y129.888 E1.9595
G1 X143.595 Y129.888 E1.9645
G1 X143.595 Y121.061 E2.2446
G1 X133.277 Y121.061 E2.5719
G1 X133.277 Y119.395 E2.6248
G1 X154.269 Y119.395 E3.2909
G1 X154.269 Y123.967 E3.4359
G1 X162.085 Y123.967 E3.6840
G1 X162.085 Y128.427 E3.8255
G1 X159.485 Y128.427 E3.9080
G1 X159.485 Y129.888 E3.9543
G1 X159.327 Y129.888 E3.9593
G1 X159.327 Y145.112 E4.4424
G1 X159.485 Y145.112 E4.4474
G1 X159.485 Y146.573 E4.4938
G1 X162.085 Y146.573 E4.5763
G1 X162.085 Y151.033 E4.7178
G1 X154.269 Y151.033 E4.9658
; outer perimeter
G1 X154.899 Y151.663 F4800
G92 E0
G1 X154.899 Y156.235 E0.1451 F1238
G1 X132.647 Y156.235 E0.8511
G1 X132.647 Y153.309 E0.9439
G1 X142.965 Y153.309 E1.2713
G1 X142.965 Y144.482 E1.5514
G1 X143.122 Y144.482 E1.5564
G1 X143.122 Y130.518 E1.9995
G1 X142.965 Y130.518 E2.0045
G1 X142.965 Y121.691 E2.2846
G1 X132.647 Y121.691 E2.6119
G1 X132.647 Y118.765 E2.7048
G1 X154.899 Y118.765 E3.4108
