; G-Code generated by Simplify3D(R) Version 3.1.1
; Mar 27, 2017 at 2:08:40 PM
; Settings Summary
;   processName,Process1
;   applyToModels,Wire Chain link,Wire Chain link(2),Wire Chain link(3),Wire Chain link(4)
;   profileName,LulzBot TAZ 5 PLA (modified)
;   profileVersion,2017-03-21 07:25:56
;   baseProfile,LulzBot TAZ 5
;   printMaterial,PLA
;   printQuality,Medium
;   printExtruders,
;   extruderName,Primary Extruder
;   extruderToolheadNumber,0
;   extruderDiameter,0.5
;   extruderAutoWidth,1
;   extruderWidth,0.6
;   extrusionMultiplier,1.02
;   extruderUseRetract,1
;   extruderRetractionDistance,3
;   extruderExtraRestartDistance,0
;   extruderRetractionZLift,0
;   extruderRetractionSpeed,498
;   extruderUseCoasting,0
;   extruderCoastingDistance,0.2
;   extruderUseWipe,0
;   extruderWipeDistance,5
;   primaryExtruder,0
;   layerHeight,0.3
;   topSolidLayers,2
;   bottomSolidLayers,2
;   perimeterOutlines,2
;   printPerimetersInsideOut,1
;   startPointOption,1
;   startPointOriginX,0
;   startPointOriginY,0
;   startPointOriginZ,300
;   sequentialIslands,0
;   spiralVaseMode,0
;   firstLayerHeightPercentage,105
;   firstLayerWidthPercentage,105
;   firstLayerUnderspeed,0.5
;   useRaft,0
;   raftExtruder,0
;   raftLayers,3
;   raftOffset,3
;   raftSeparationDistance,0.14
;   raftInfill,85
;   disableRaftBaseLayers,0
;   useSkirt,1
;   skirtExtruder,0
;   skirtLayers,1
;   skirtOutlines,10
;   skirtOffset,0
;   usePrimePillar,0
;   primePillarExtruder,999
;   primePillarWidth,12
;   primePillarLocation,7
;   primePillarSpeedMultiplier,1
;   useOozeShield,0
;   oozeShieldExtruder,999
;   oozeShieldOffset,2
;   oozeShieldOutlines,1
;   oozeShieldSidewallShape,1
;   oozeShieldSidewallAngle,30
;   oozeShieldSpeedMultiplier,1
;   infillExtruder,0
;   internalInfillPattern,Rectilinear
;   externalInfillPattern,Rectilinear
;   infillPercentage,20
;   outlineOverlapPercentage,40
;   infillExtrusionWidthPercentage,220
;   minInfillLength,5
;   infillLayerInterval,1
;   infillAngles,45,-45
;   overlapInfillAngles,0
;   generateSupport,0
;   supportExtruder,0
;   supportInfillPercentage,25
;   supportExtraInflation,0
;   denseSupportLayers,0
;   denseSupportInfillPercentage,70
;   supportLayerInterval,1
;   supportHorizontalPartOffset,0.02
;   supportUpperSeparationLayers,1
;   supportLowerSeparationLayers,1
;   supportType,1
;   supportGridSpacing,4
;   maxOverhangAngle,15
;   supportAngles,0,45
;   temperatureName,Primary Extruder,Heated Bed
;   temperatureNumber,0,1
;   temperatureSetpointCount,1,1
;   temperatureSetpointLayers,1,1
;   temperatureSetpointTemperatures,210,65
;   temperatureStabilizeAtStartup,1,1
;   temperatureHeatedBed,0,1
;   temperatureRelayBetweenLayers,0,0
;   temperatureRelayBetweenLoops,0,0
;   fanLayers,1
;   fanSpeeds,0
;   blipFanToFullPower,0
;   adjustSpeedForCooling,1
;   minSpeedLayerTime,15
;   minCoolingSpeedSlowdown,20
;   increaseFanForCooling,0
;   minFanLayerTime,45
;   maxCoolingFanSpeed,100
;   increaseFanForBridging,0
;   bridgingFanSpeed,100
;   use5D,1
;   relativeEdistances,0
;   allowEaxisZeroing,1
;   independentExtruderAxes,0
;   includeM10123,0
;   stickySupport,1
;   applyToolheadOffsets,0
;   gcodeXoffset,0
;   gcodeYoffset,0
;   gcodeZoffset,0
;   overrideMachineDefinition,1
;   machineTypeOverride,0
;   strokeXoverride,298
;   strokeYoverride,275
;   strokeZoverride,250
;   originOffsetXoverride,0
;   originOffsetYoverride,0
;   originOffsetZoverride,0
;   homeXdirOverride,-1
;   homeYdirOverride,-1
;   homeZdirOverride,-1
;   flipXoverride,1
;   flipYoverride,-1
;   flipZoverride,1
;   toolheadOffsets,0,0|0,0|0,0|0,0|0,0|0,0
;   overrideFirmwareConfiguration,1
;   firmwareTypeOverride,RepRap (Marlin/Repetier/Sprinter)
;   GPXconfigOverride,r2
;   baudRateOverride,115200
;   overridePrinterModels,1
;   printerModelsOverride,LulzBot_TAZ3.stl
;   startingGcode,G28 ; home all axes,G1 X240 E20 F1500 ;,,
;   layerChangeGcode,
;   retractionGcode,
;   toolChangeGcode,
;   endingGcode,M104 S0 ; turn off extruder,M140 S0 ; turn off bed,G28 X0 ; home X axis,M84 ; disable motors,M106 S0;
;   exportFileFormat,gcode
;   celebration,0
;   celebrationSong,Random Song
;   postProcessing,
;   defaultSpeed,3300
;   outlineUnderspeed,0.75
;   solidInfillUnderspeed,0.75
;   supportUnderspeed,0.75
;   rapidXYspeed,4800
;   rapidZspeed,1002
;   minBridgingArea,50
;   bridgingExtraInflation,0
;   bridgingExtrusionMultiplier,1
;   bridgingSpeedMultiplier,1
;   filamentDiameter,2.85
;   filamentPricePerKg,53.33
;   filamentDensity,1.25
;   useMinPrintHeight,0
;   minPrintHeight,0
;   useMaxPrintHeight,0
;   maxPrintHeight,0
;   useDiaphragm,0
;   diaphragmLayerInterval,20
;   robustSlicing,1
;   mergeAllIntoSolid,0
;   onlyRetractWhenCrossingOutline,1
;   retractBetweenLayers,1
;   useRetractionMinTravel,0
;   retractionMinTravel,3
;   retractWhileWiping,0
;   onlyWipeOutlines,1
;   avoidCrossingOutline,1
;   maxMovementDetourFactor,3
;   toolChangeRetractionDistance,12
;   toolChangeExtraRestartDistance,-0.5
;   toolChangeRetractionSpeed,600
;   allowThinWallGapFill,0
;   thinWallAllowedOverlapPercentage,10
;   horizontalSizeCompensation,0
G90
M82
M106 S0
M140 S65
M190 S65
M104 S210 T0
M109 S210 T0
G28 ; home all axes
G1 X240 E20 F1500 ;
G92 E0
G1 E-3.0000 F498
G1 Z0.315 F1002
; layer 1, Z = 0.315
T0
; tool H0.315 W0.630
; skirt
G1 X105.082 Y94.539 F4800
G1 E0.0000 F149
G92 E0
G1 X108.421 Y91.200 E0.1498 F1650
G1 X136.025 Y91.200 E1.0257
G1 X139.364 Y94.539 E1.1755
G1 X139.364 Y95.772 E1.2146
G1 X143.841 Y95.772 E1.3567
G1 X147.180 Y99.111 E1.5066
G1 X147.180 Y110.183 E1.8579
G1 X144.422 Y112.941 E1.9816
G1 X144.422 Y118.959 E2.1726
G1 X147.180 Y121.717 E2.2963
G1 X147.180 Y132.789 E2.6477
G1 X143.841 Y136.128 E2.7975
G1 X139.364 Y136.128 E2.9396
G1 X139.364 Y137.361 E2.9787
G1 X139.225 Y137.500 E2.9849
G1 X139.364 Y137.639 E2.9912
G1 X139.364 Y138.872 E3.0303
G1 X143.841 Y138.872 E3.1724
G1 X147.180 Y142.211 E3.3222
G1 X147.180 Y153.283 E3.6735
G1 X144.422 Y156.041 E3.7973
G1 X144.422 Y162.059 E3.9882
G1 X147.180 Y164.817 E4.1120
G1 X147.180 Y175.889 E4.4633
G1 X143.841 Y179.228 E4.6131
G1 X139.364 Y179.228 E4.7552
G1 X139.364 Y180.461 E4.7944
G1 X136.025 Y183.800 E4.9442
G1 X108.421 Y183.800 E5.8200
G1 X105.082 Y180.461 E5.9699
G1 X105.082 Y172.183 E6.2325
G1 X108.421 Y168.844 E6.3824
G1 X115.400 Y168.844 E6.6038
G1 X115.400 Y163.356 E6.7779
G1 X115.557 Y163.198 E6.7850
G1 X115.557 Y154.902 E7.0483
G1 X115.400 Y154.744 E7.0553
G1 X115.400 Y149.256 E7.2295
G1 X108.421 Y149.256 E7.4509
G1 X105.082 Y145.917 E7.6007
G1 X105.082 Y137.639 E7.8634
G1 X105.221 Y137.500 E7.8696
G1 X105.082 Y137.361 E7.8759
G1 X105.082 Y129.083 E8.1385
G1 X108.421 Y125.744 E8.2883
G1 X115.400 Y125.744 E8.5098
G1 X115.400 Y120.256 E8.6839
G1 X115.557 Y120.098 E8.6910
G1 X115.557 Y111.802 E8.9542
G1 X115.400 Y111.644 E8.9613
G1 X115.400 Y106.156 E9.1354
G1 X108.421 Y106.156 E9.3569
G1 X105.082 Y102.817 E9.5067
G1 X105.082 Y94.539 E9.7694
G1 X148.182 Y94.539 F4800
G92 E0
G1 X151.521 Y91.200 E0.1498 F1650
G1 X179.125 Y91.200 E1.0257
G1 X182.464 Y94.539 E1.1755
G1 X182.464 Y95.772 E1.2146
G1 X186.941 Y95.772 E1.3567
G1 X190.280 Y99.111 E1.5066
G1 X190.280 Y110.183 E1.8579
G1 X187.522 Y112.941 E1.9816
G1 X187.522 Y118.959 E2.1726
G1 X190.280 Y121.717 E2.2963
G1 X190.280 Y132.789 E2.6477
G1 X186.941 Y136.128 E2.7975
G1 X182.464 Y136.128 E2.9396
G1 X182.464 Y137.361 E2.9787
G1 X182.325 Y137.500 E2.9849
G1 X182.464 Y137.639 E2.9912
G1 X182.464 Y138.872 E3.0303
G1 X186.941 Y138.872 E3.1724
G1 X190.280 Y142.211 E3.3222
G1 X190.280 Y153.283 E3.6735
G1 X187.522 Y156.041 E3.7973
G1 X187.522 Y162.059 E3.9882
G1 X190.280 Y164.817 E4.1120
G1 X190.280 Y175.889 E4.4633
G1 X186.941 Y179.228 E4.6131
G1 X182.464 Y179.228 E4.7552
G1 X182.464 Y180.461 E4.7943
G1 X179.125 Y183.800 E4.9442
G1 X151.521 Y183.800 E5.8200
G1 X148.182 Y180.461 E5.9699
G1 X148.182 Y172.183 E6.2325
G1 X151.521 Y168.844 E6.3824
G1 X158.500 Y168.844 E6.6038
G1 X158.500 Y163.356 E6.7779
G1 X158.657 Y163.198 E6.7850
G1 X158.657 Y154.902 E7.0483
G1 X158.500 Y154.744 E7.0553
G1 X158.500 Y149.256 E7.2295
G1 X151.521 Y149.256 E7.4509
G1 X148.182 Y145.917 E7.6007
G1 X148.182 Y137.639 E7.8634
G1 X148.321 Y137.500 E7.8696
G1 X148.182 Y137.361 E7.8759
G1 X148.182 Y129.083 E8.1385
G1 X151.521 Y125.744 E8.2883
G1 X158.500 Y125.744 E8.5098
G1 X158.500 Y120.256 E8.6839
G1 X158.657 Y120.098 E8.6910
G1 X158.657 Y111.802 E8.9542
G1 X158.500 Y111.644 E8.9613
G1 X158.500 Y106.156 E9.1354
G1 X151.521 Y106.156 E9.3569
G1 X148.182 Y102.817 E9.5067
G1 X148.182 Y94.539 E9.7694
G1 X148.782 Y94.787 F4800
G92 E0
G1 X151.770 Y91.800 E0.1341 F1650
G1 X178.876 Y91.800 E0.9941
G1 X181.863 Y94.787 E1.1282
G1 X181.863 Y96.372 E1.1785
G1 X186.693 Y96.372 E1.3317
G1 X189.680 Y99.360 E1.4658
G1 X189.680 Y109.934 E1.8013
G1 X186.922 Y112.692 E1.9251
G1 X186.922 Y119.208 E2.1318
G1 X189.680 Y121.966 E2.2556
G1 X189.680 Y132.540 E2.5911
G1 X186.693 Y135.528 E2.7252
G1 X181.863 Y135.528 E2.8784
G1 X181.863 Y137.112 E2.9287
G1 X181.476 Y137.500 E2.9461
G1 X181.864 Y137.888 E2.9634
G1 X181.864 Y139.472 E3.0137
G1 X186.693 Y139.472 E3.1670
G1 X189.680 Y142.460 E3.3010
G1 X189.680 Y153.035 E3.6366
G1 X186.922 Y155.792 E3.7603
G1 X186.922 Y162.308 E3.9671
G1 X189.680 Y165.066 E4.0908
G1 X189.680 Y175.640 E4.4264
G1 X186.693 Y178.628 E4.5604
G1 X181.864 Y178.628 E4.7137
G1 X181.864 Y180.212 E4.7639
G1 X178.876 Y183.200 E4.8980
G1 X151.770 Y183.200 E5.7581
G1 X148.782 Y180.212 E5.8921
G1 X148.782 Y172.432 E6.1390
G1 X151.770 Y169.444 E6.2731
G1 X159.100 Y169.444 E6.5057
G1 X159.100 Y163.605 E6.6909
G1 X159.257 Y163.447 E6.6980
G1 X159.257 Y154.653 E6.9770
G1 X159.100 Y154.495 E6.9841
G1 X159.100 Y148.656 E7.1694
G1 X151.770 Y148.656 E7.4020
G1 X148.782 Y145.668 E7.5360
G1 X148.782 Y137.888 E7.7829
G1 X149.170 Y137.500 E7.8003
G1 X148.782 Y137.112 E7.8177
G1 X148.782 Y129.332 E8.0646
G1 X151.770 Y126.344 E8.1987
G1 X159.100 Y126.344 E8.4312
G1 X159.100 Y120.505 E8.6165
G1 X159.257 Y120.347 E8.6236
G1 X159.257 Y111.553 E8.9026
G1 X159.100 Y111.395 E8.9097
G1 X159.100 Y105.556 E9.0950
G1 X151.770 Y105.556 E9.3276
G1 X148.782 Y102.568 E9.4616
G1 X148.782 Y94.787 E9.7085
G1 X146.580 Y99.360 F4800
G92 E0
G1 X146.580 Y109.934 E0.3355 F1650
G1 X143.822 Y112.692 E0.4593
G1 X143.822 Y119.208 E0.6660
G1 X146.580 Y121.966 E0.7898
G1 X146.580 Y132.540 E1.1253
G1 X143.593 Y135.528 E1.2594
G1 X138.764 Y135.528 E1.4126
G1 X138.764 Y137.112 E1.4629
G1 X138.376 Y137.500 E1.4803
G1 X138.764 Y137.888 E1.4977
G1 X138.764 Y139.472 E1.5480
G1 X143.593 Y139.472 E1.7012
G1 X146.580 Y142.460 E1.8353
G1 X146.580 Y153.035 E2.1708
G1 X143.822 Y155.792 E2.2946
G1 X143.822 Y162.308 E2.5013
G1 X146.580 Y165.066 E2.6250
G1 X146.580 Y175.640 E2.9606
G1 X143.593 Y178.628 E3.0946
G1 X138.764 Y178.628 E3.2479
G1 X138.764 Y180.212 E3.2982
G1 X135.776 Y183.200 E3.4322
G1 X108.670 Y183.200 E4.2923
G1 X105.682 Y180.212 E4.4264
G1 X105.682 Y172.432 E4.6732
G1 X108.670 Y169.444 E4.8073
G1 X116.000 Y169.444 E5.0399
G1 X116.000 Y163.605 E5.2252
G1 X116.157 Y163.447 E5.2322
G1 X116.157 Y154.653 E5.5113
G1 X116.000 Y154.495 E5.5183
G1 X116.000 Y148.656 E5.7036
G1 X108.670 Y148.656 E5.9362
G1 X105.682 Y145.668 E6.0703
G1 X105.682 Y137.888 E6.3172
G1 X106.070 Y137.500 E6.3346
G1 X105.682 Y137.112 E6.3519
G1 X105.682 Y129.332 E6.5988
G1 X108.670 Y126.344 E6.7329
G1 X116.000 Y126.344 E6.9655
G1 X116.000 Y120.505 E7.1508
G1 X116.157 Y120.347 E7.1578
G1 X116.157 Y111.553 E7.4369
G1 X116.000 Y111.395 E7.4439
G1 X116.000 Y105.556 E7.6292
G1 X108.670 Y105.556 E7.8618
G1 X105.682 Y102.568 E7.9959
G1 X105.682 Y94.787 E8.2428
G1 X108.670 Y91.800 E8.3768
G1 X135.776 Y91.800 E9.2369
G1 X138.764 Y94.787 E9.3709
G1 X138.764 Y96.372 E9.4212
G1 X143.593 Y96.372 E9.5745
G1 X146.580 Y99.360 E9.7085
G1 X145.980 Y99.608 F4800
G92 E0
G1 X145.980 Y109.686 E0.3198 F1650
G1 X143.344 Y112.322 E0.4381
G1 X143.222 Y112.322 E0.4419
G1 X143.222 Y119.578 E0.6722
G1 X143.344 Y119.578 E0.6760
G1 X145.980 Y122.214 E0.7943
G1 X145.980 Y132.292 E1.1141
G1 X143.344 Y134.928 E1.2324
G1 X138.164 Y134.928 E1.3968
G1 X138.164 Y136.864 E1.4582
G1 X137.527 Y137.500 E1.4867
G1 X138.164 Y138.136 E1.5153
G1 X138.164 Y140.072 E1.5767
G1 X143.344 Y140.072 E1.7411
G1 X145.980 Y142.708 E1.8594
G1 X145.980 Y152.786 E2.1792
G1 X143.344 Y155.422 E2.2974
G1 X143.222 Y155.422 E2.3013
G1 X143.222 Y162.678 E2.5316
G1 X143.344 Y162.678 E2.5354
G1 X145.980 Y165.314 E2.6537
G1 X145.980 Y175.392 E2.9735
G1 X143.344 Y178.028 E3.0918
G1 X138.164 Y178.028 E3.2562
G1 X138.164 Y179.964 E3.3176
G1 X135.527 Y182.600 E3.4359
G1 X108.919 Y182.600 E4.2802
G1 X106.282 Y179.964 E4.3985
G1 X106.282 Y172.680 E4.6296
G1 X108.919 Y170.044 E4.7479
G1 X116.600 Y170.044 E4.9916
G1 X116.600 Y163.853 E5.1880
G1 X116.757 Y163.696 E5.1951
G1 X116.757 Y154.404 E5.4899
G1 X116.600 Y154.247 E5.4970
G1 X116.600 Y148.056 E5.6934
G1 X108.919 Y148.056 E5.9372
G1 X106.282 Y145.420 E6.0555
G1 X106.282 Y138.136 E6.2866
G1 X106.919 Y137.500 E6.3151
G1 X106.282 Y136.864 E6.3437
G1 X106.282 Y129.580 E6.5748
G1 X108.919 Y126.944 E6.6931
G1 X116.600 Y126.944 E6.9368
G1 X116.600 Y120.753 E7.1332
G1 X116.757 Y120.596 E7.1403
G1 X116.757 Y111.304 E7.4351
G1 X116.600 Y111.147 E7.4422
G1 X116.600 Y104.956 E7.6386
G1 X108.919 Y104.956 E7.8823
G1 X106.282 Y102.320 E8.0006
G1 X106.282 Y95.036 E8.2318
G1 X108.919 Y92.400 E8.3500
G1 X135.527 Y92.400 E9.1943
G1 X138.164 Y95.036 E9.3126
G1 X138.164 Y96.972 E9.3741
G1 X143.344 Y96.972 E9.5385
G1 X145.980 Y99.608 E9.6567
G1 X149.382 Y102.320 F4800
G92 E0
G1 X149.382 Y95.036 E0.2311 F1650
G1 X152.018 Y92.400 E0.3494
G1 X178.627 Y92.400 E1.1937
G1 X181.263 Y95.036 E1.3120
G1 X181.263 Y96.972 E1.3734
G1 X186.444 Y96.972 E1.5378
G1 X189.080 Y99.608 E1.6561
G1 X189.080 Y109.686 E1.9759
G1 X186.444 Y112.322 E2.0942
G1 X186.322 Y112.322 E2.0980
G1 X186.322 Y119.578 E2.3283
G1 X186.444 Y119.578 E2.3321
G1 X189.080 Y122.214 E2.4504
G1 X189.080 Y132.292 E2.7702
G1 X186.444 Y134.928 E2.8885
G1 X181.263 Y134.928 E3.0529
G1 X181.263 Y136.864 E3.1143
G1 X180.627 Y137.500 E3.1428
G1 X181.264 Y138.136 E3.1714
G1 X181.264 Y140.072 E3.2328
G1 X186.444 Y140.072 E3.3972
G1 X189.080 Y142.708 E3.5155
G1 X189.080 Y152.786 E3.8353
G1 X186.444 Y155.422 E3.9536
G1 X186.322 Y155.422 E3.9574
G1 X186.322 Y162.678 E4.1877
G1 X186.444 Y162.678 E4.1915
G1 X189.080 Y165.314 E4.3098
G1 X189.080 Y175.392 E4.6296
G1 X186.444 Y178.028 E4.7479
G1 X181.264 Y178.028 E4.9123
G1 X181.264 Y179.964 E4.9737
G1 X178.627 Y182.600 E5.0920
G1 X152.019 Y182.600 E5.9363
G1 X149.382 Y179.964 E6.0546
G1 X149.382 Y172.680 E6.2857
G1 X152.019 Y170.044 E6.4040
G1 X159.700 Y170.044 E6.6477
G1 X159.700 Y163.853 E6.8442
G1 X159.857 Y163.696 E6.8512
G1 X159.857 Y154.404 E7.1460
G1 X159.700 Y154.247 E7.1531
G1 X159.700 Y148.056 E7.3495
G1 X152.019 Y148.056 E7.5933
G1 X149.382 Y145.420 E7.7116
G1 X149.382 Y138.136 E7.9427
G1 X150.019 Y137.500 E7.9712
G1 X149.382 Y136.864 E7.9998
G1 X149.382 Y129.580 E8.2309
G1 X152.018 Y126.944 E8.3492
G1 X159.700 Y126.944 E8.5929
G1 X159.700 Y120.753 E8.7893
G1 X159.857 Y120.596 E8.7964
G1 X159.857 Y111.304 E9.0912
G1 X159.700 Y111.147 E9.0983
G1 X159.700 Y104.956 E9.2947
G1 X152.018 Y104.956 E9.5385
G1 X149.382 Y102.320 E9.6567
G1 X149.982 Y102.071 F4800
G92 E0
G1 X149.982 Y95.285 E0.2153 F1650
G1 X152.267 Y93.000 E0.3179
G1 X178.379 Y93.000 E1.1464
G1 X180.663 Y95.285 E1.2489
G1 X180.663 Y97.572 E1.3215
G1 X186.196 Y97.572 E1.4970
G1 X188.480 Y99.857 E1.5996
G1 X188.480 Y109.437 E1.9036
G1 X186.196 Y111.722 E2.0061
G1 X185.722 Y111.722 E2.0211
G1 X185.722 Y120.178 E2.2894
G1 X186.196 Y120.178 E2.3044
G1 X188.480 Y122.463 E2.4069
G1 X188.480 Y132.043 E2.7109
G1 X186.196 Y134.328 E2.8135
G1 X180.663 Y134.328 E2.9890
G1 X180.663 Y136.615 E3.0616
G1 X179.779 Y137.500 E3.1013
G1 X180.664 Y138.385 E3.1410
G1 X180.664 Y140.672 E3.2135
G1 X186.196 Y140.672 E3.3891
G1 X188.480 Y142.957 E3.4916
G1 X188.480 Y152.537 E3.7956
G1 X186.196 Y154.822 E3.8981
G1 X185.722 Y154.822 E3.9131
G1 X185.722 Y163.278 E4.1814
